resources/svg/three-d.svg

<svg xmlns="http://www.w3.org/2000/svg" viewBox="0 0 24 24" fill="currentColor"><path fill="none" stroke="currentColor" stroke-width="2" d="M2,5.5 L2,18.5 L12,22.5 L22,18.5 L22,5.5 L12,1.5 L2,5.5 Z M13,12 L18,12 L18,17 M2,5.5 L12,9.5 L22,5.5 M6,14 C6,14 12,20.5 18,12"/></svg>

<svg viewBox="0 0 24 24"><path fill="none" stroke="currentColor" stroke-width="2" d="M2 5.5v13l10 4l10-4v-13l-10-4l-10 4zM13 12h5v5M2 5.5l10 4l10-4M6 14s6 6.5 12-2"/></svg>
